!! 00000] TT[WS
!!!OTL: Sijie diaocaiya
!!!ARE: Asia, China, Shanxi Linxian
!! Ethnic Group: Han
!! WII, 142 (2)
!!!SCT: J0618
!!!YEM: Copyright 1995, estate of Helmut Schaffrath.
**kern
*ICvox
*Ivox
*M2/4
*k[f#c#g#]
*A:
{8b
4ee
8dd
=1
2b
=2
8ff#
4ee
8b
=3
2a}
=4
{8b
4ee
8dd
=5
4b
4a
=6
8b
4f#
8e
=7
4d
4r}
=8
{8e
4e
8f#
=9
4b
8dd
8b
=10
8b
4b
8e
=11
4f#
4r}
=12
{8b
4b
8b
=13
8dd
8b
8a
8f#
=14
4e
8e
8f#
=15
4a
8a
8f#
=16
8e
8f#
8e
8d
=17
4B
4r}
==
!!!AGN: Xiaodiao. Maimai, Qingge
!!!ONB: ESAC (Essen Associative Code) Database: CHINA
!!!AMT: simple duple
!!!AIN: vox
!!!EED: Helmut Schaffrath
!!!EEV: 1.0
*-
